X: 3678
T: Billy Craib's
R: reel
M: 4/4
K: Dmajor
|:Ac|d2 fd BdAG|FAde fdcd|eAfA gAfA|edcB Aa^ga|
d2 f/e/d BdAG|FAde f/e/d cd|eAfA gecA|dfec d2:|
|:cd|e2 ce Aceg|f2 df Ad f/g/a|^g2 eg Begb|
[1 a^gab a2 B/c/d|e/e/e ce Aceg|f/f/f d/e/f Adfa|g/g/g f/e/d cABc|d/e/d c2 d2:|
[2 a^gab a2 =g/f/e|d2 f/e/d BdAG|FAde fdcd|eAfA gecA|d2 ce d2||

